X: 42627
T: Whirlpool, The
R: reel
M: 4/4
K: Emajor
E2 FE GB BB-|BcBG BGFG|E2 FE GB B2|AEGF FECB,|
E2 FE GB BB-|BcBG Bede|c2 c/c/c c2 Bc|ecBG FBGF:|
|:EBcB eB B/B/B|gBag- geBe|Bcec ac c/c/c|acba- agec|
B2 cB eB B/B/B|gBag- geBe|BccB cefg|eBcB GEFG:|

